X:250
T:Minek nékem Kolozsvár...
M:2/4
L:1/4
K:Bb
f/e/d/c/ G/A/B | A<G G z |
g/g/g/f/ d/=e/f/f/ | =e<d d z |
g/g/g/f/ d/=e/f/f/ | d/d/B/c/ d z |
f/e/d/c/ G/G/B/B/ | A<G G z |

